X:0811
M:2/4
L:1/8
Q:1/4=60
K:G
   ddBB         |GG (G/A//<B//)     z|cc Bz/G/|{B}A/>G/ A/>B/ G z/ G/|
   ABcd         |ABcd                |ABce    |   dB         Hd z/ d/|
   dd/>d/ BB/>A/|GG (G///A///)B3//  z|cc Bz/G/|{B}A/>G/ A/>B/ G z   |]

